icons/malaria_microscope_fill.svg

<svg width="48" height="48" viewBox="0 0 48 48" fill="none" xmlns="http://www.w3.org/2000/svg">
<path fill-rule="evenodd" clip-rule="evenodd" d="M24 44C35.0457 44 44 35.0457 44 24C44 12.9543 35.0457 4 24 4C12.9543 4 4 12.9543 4 24C4 35.0457 12.9543 44 24 44ZM10.745 21.3088C11.9252 22.8359 15.372 22.1495 18.4437 19.7757C21.5154 17.4019 23.0489 14.2396 21.8687 12.7125C20.6886 11.1854 17.2418 11.8718 14.1701 14.2456C11.0983 16.6194 9.5649 19.7817 10.745 21.3088ZM32.4393 26.8501C35.7259 28.8346 37.5904 31.7679 36.6039 33.4018C35.6173 35.0357 32.1532 34.7516 28.8666 32.7671C25.58 30.7827 23.7155 27.8494 24.702 26.2155C25.6886 24.5815 29.1527 24.8657 32.4393 26.8501ZM33.2707 22.8553C35.0199 22.0371 35.1036 18.5216 33.4578 15.0033C31.812 11.485 29.0598 9.29611 27.3107 10.1143C25.5615 10.9326 25.4778 14.448 27.1236 17.9664C28.7694 21.4847 31.5216 23.6735 33.2707 22.8553ZM21.62 29.9331C23.4041 33.4821 23.4201 37.0783 21.6556 37.9652C19.8912 38.8522 17.0145 36.6942 15.2304 33.1451C13.4463 29.596 13.4304 25.9999 15.1948 25.1129C16.9592 24.2259 19.8359 26.384 21.62 29.9331Z" fill="black"/>
</svg>

<svg
  xmlns="http://www.w3.org/2000/svg"
  width="24"
  height="24"
  viewBox="0 0 24 24"
  fill="none"
  stroke="currentColor"
  stroke-width="2"
  stroke-linecap="round"
  stroke-linejoin="round"
>
  <path
    fill-rule="evenodd"
    d="M24 44c11.046 0 20-8.954 20-20S35.046 4 24 4 4 12.954 4 24s8.954 20 20 20M10.745 21.309c1.18 1.527 4.627.84 7.699-1.533 3.071-2.374 4.605-5.536 3.425-7.063s-4.627-.841-7.699 1.533-4.605 5.536-3.425 7.063m21.694 5.541c3.287 1.985 5.151 4.918 4.165 6.552-.987 1.634-4.45 1.35-7.737-.635-3.287-1.984-5.152-4.918-4.165-6.552s4.45-1.35 7.737.635m.832-3.995c1.749-.818 1.833-4.333.187-7.852-1.646-3.518-4.398-5.707-6.147-4.889-1.75.819-1.833 4.334-.187 7.852s4.398 5.708 6.147 4.89M21.62 29.933c1.784 3.55 1.8 7.145.036 8.032s-4.641-1.27-6.426-4.82c-1.784-3.549-1.8-7.145-.035-8.032 1.764-.887 4.64 1.271 6.425 4.82"
    clip-rule="evenodd"
  />
</svg>
